X:1
T:Title
%%score ( 1 2 ) { 3 | 4 }
L:1/8
Q:1/4=110
M:4/4
K:F
V:1 treble nm="Grand Piano, Staff 1"
V:2 treble 
V:3 bass nm="Choir Pad, Ecce Homo"
V:4 bass 
V:1
 [Dd]2 A2 B2 AG | F2 E2 D4 | [DF]2 E2 [DG]2 [DF]2 | [DB]2 FG [^CA]4 | D3 D D2 D2 | %5
w: By~William~Henry~Monk~(1823\-1889) * * * *|||||
 [DE]2 E-[=B,E] [^CE]4 | [^CE]2 [CE]2 [EA]2 [CE]2 | [DG]2 FE [DF]4 | [DF]3 [DF] [DF]2 F2 | %9
w: ||||
 [FG]2 G-[DG] [EG]4 | [EG]2 [EG]2 [Gc]2 [EG]2 | [FB]2 AG [FA]4 | [CA]3 [^CA] [DA]2 [DA]2 | %13
w: ||||
 [=B,=B]2 [EB]2 [EB]4 | [E=B]2 [EB]2 [Ee]2 [EB]2 | [Ed]2 ^c=B [Ec]4 | [Dd]3 [Dd] A2 A2 | F2 D2 B4 | %18
w: |||||
 A2 AG [FA]2 [Fd]2 | [Bd]4 ^c2- [Gc]2 | [Fd]8 | [Dd]2 A2 B2 AG | F2 E2 D4 | [DF]2 E2 [DG]2 [DF]2 | %24
w: ||||||
 [DB]2 D-[DG] [^CA]4 | D3 D D2 D2 | z2 E2 z4 | [^CE]2 [CE]2 [EA]2 [CE]2 | [DG]2 FE [DF]4 | %29
w: |||||
 [DF]3 [DF] [DF]2 F2 | [FG]2 G-[DG] [EG]4 | [EG]2 [EG]2 [Gc]2 [EG]2 | [FB]2 AG [FA]4 | %33
w: ||||
 [CA]3 [^CA] [DA]2 [DA]2 | [=B,=B]2 [EB]2 [EB]4 | [E=B]2 [EB]2 [Ee]2 [EB]2 | [Ed]2 ^c=B [Ec]4 | %37
w: ||||
 [Dd]3 [Dd] A2 A2 | F2 D2 B4 | A2 AG [^FA]2 [Fd]2 | [=Bd]4 [A^c]4 | [Ad]8 | [Dd]2 A2 B2 AG | %43
w: ||||||
 F2 E2 D4 | [DF]2 E2 [DG]2 [DF]2 | [DB]2 FG [^CA]4 | D3 D D2 D2 | [DE]2 E-[=B,E] [^CE]4 | %48
w: |||||
 [^CE]2 [CE]2 [EA]2 [CE]2 | [DG]2 FE [DF]4 | [DF]3 [DF] [DF]2 F2 | [FG]2 G-[DG] [EG]4 | %52
w: ||||
 [EG]2 [EG]2 [Gc]2 [EG]2 | [FB]2 AG [FA]4 | [CA]3 [^CA] [DA]2 [DA]2 | [=B,=B]2 [EB]2 [EB]4 | %56
w: ||||
 [E=B]2 [EB]2 [Ee]2 [EB]2 | [Ed]2 ^c=B [Ec]4 | [Dd]3 [Dd] A2 A2 | F2 D2 B4 | A2 AG [FA]2 [Fd]2 | %61
w: |||||
 [Bd]4 ^c2- [Gc]2 | [Fd]8 | [Dd]2 A2 B2 AG | F2 E2 D4 | [DF]2 E2 [DG]2 [DF]2 | %66
w: |||||
 [DB]2 D-[DG] [^CA]4 | D3 D D2 D2 | z2 E2 z4 | [^CE]2 [CE]2 [EA]2 [CE]2 | [DG]2 FE [DF]4 | %71
w: |||||
 [DF]3 [DF] [DF]2 F2 | [FG]2 G-[DG] [EG]4 | [EG]2 [EG]2 [Gc]2 [EG]2 | [FB]2 AG [FA]4 | %75
w: ||||
 [CA]3 [^CA] [DA]2 [DA]2 | [=B,=B]2 [EB]2 [EB]4 | [E=B]2 [EB]2 [Ee]2 [EB]2 | [Ed]2 ^c=B [Ec]4 | %79
w: ||||
 [Dd]3 [Dd] A2 A2 | F2 D2 B4 | A2 AG [^FA]2 [Fd]2 | [=Bd]4 [A^c]4 | [Ad]8 | [Dd]2 A2 B2 AG | %85
w: ||||||
 F2 E2 D4 | [DF]2 E2 [DG]2 [DF]2 | [DB]2 FG [^CA]4 | D3 D D2 D2 | [DE]2 E-[=B,E] [^CE]4 | %90
w: |||||
 [^CE]2 [CE]2 [EA]2 [CE]2 | [DG]2 FE [DF]4 | [DF]3 [DF] [DF]2 F2 | [FG]2 G-[DG] [EG]4 | %94
w: ||||
 [EG]2 [EG]2 [Gc]2 [EG]2 | [FB]2 AG [FA]4 | [CA]3 [^CA] [DA]2 [DA]2 | [=B,=B]2 [EB]2 [EB]4 | %98
w: ||||
 [E=B]2 [EB]2 [Ee]2 [EB]2 | [Ed]2 ^c=B [Ec]4 | [Dd]3 [Dd] A2 A2 | F2 D2 B4 |] %102
w: ||||
V:2
 x8 | x8 | x8 | z2 D2 z4 | x8 | z2 .^C2 z4 | x8 | z2 D2 z4 | x8 | z2 .E2 z4 | x8 | z2 F2 z4 | x8 | %13
 x8 | x8 | z2 E2 z4 | x8 | x8 | x8 | z4 A2 z2 | x8 | x8 | x8 | x8 | z2 .F2 z4 | x8 | %26
 [DE]2 ^C=B, [CE]4 | x8 | z2 D2 z4 | x8 | z2 .E2 z4 | x8 | z2 F2 z4 | x8 | x8 | x8 | z2 E2 z4 | %37
 x8 | x8 | x8 | x8 | x8 | x8 | x8 | x8 | z2 D2 z4 | x8 | z2 .^C2 z4 | x8 | z2 D2 z4 | x8 | %51
 z2 .E2 z4 | x8 | z2 F2 z4 | x8 | x8 | x8 | z2 E2 z4 | x8 | x8 | x8 | z4 A2 z2 | x8 | x8 | x8 | %65
 x8 | z2 .F2 z4 | x8 | [DE]2 ^C=B, [CE]4 | x8 | z2 D2 z4 | x8 | z2 .E2 z4 | x8 | z2 F2 z4 | x8 | %76
 x8 | x8 | z2 E2 z4 | x8 | x8 | x8 | x8 | x8 | x8 | x8 | x8 | z2 D2 z4 | x8 | z2 .^C2 z4 | x8 | %91
 z2 D2 z4 | x8 | z2 .E2 z4 | x8 | z2 F2 z4 | x8 | x8 | x8 | z2 E2 z4 | x8 | x8 |] %102
V:3
 D2 A,2 B,2 A,G, | F,2 E,2 D,4 | A,2 A,2 G,2 A,2 | G,2 D,2 E,4 | D,3 E, F,2 A,2 | A,2 A,2 A,4 | %6
 A,2 A,2 A,2 A,2 | A,2 A,2 A,4 | B,3 B, B,2 A,2 | C2 C2 C4 | C2 C2 C2 C2 | C2 C2 C4 | %12
 A,3 G, F,2 A,2 | A,2 _A,^F, A,4 | _A,2 A,2 =B,2 A,2 | A,2 A,2 A,4 | D3 D A,2 A,2 | F,2 D,2 B,4 | %18
 A,G, A,2 D2 A,2 | E4 A,4 | A,8 | D2 A,2 B,2 A,G, | F,2 E,2 D,4 | A,2 A,2 G,2 A,2 | G,2 D,2 E,4 | %25
 D,3 E, F,2 A,2 | A,2 A,2 A,4 | A,2 A,2 A,2 A,2 | A,2 A,2 A,4 | B,3 B, B,2 A,2 | C2 C2 C4 | %31
 C2 C2 C2 C2 | C2 C2 C4 | A,3 G, F,2 A,2 | A,2 _A,^F, A,4 | _A,2 A,2 =B,2 A,2 | A,2 A,2 A,4 | %37
 D3 D A,2 A,2 | F,2 D,2 B,4 | A,G, A,2[K:treble] D2 A,2 | E4 E4 | ^F8 | D2[K:bass] A,2 B,2 A,G, | %43
 F,2 E,2 D,4 | A,2 A,2 G,2 A,2 | G,2 D,2 E,4 | D,3 E, F,2 A,2 | A,2 A,2 A,4 | A,2 A,2 A,2 A,2 | %49
 A,2 A,2 A,4 | B,3 B, B,2 A,2 | C2 C2 C4 | C2 C2 C2 C2 | C2 C2 C4 | A,3 G, F,2 A,2 | %55
 A,2 _A,^F, A,4 | _A,2 A,2 =B,2 A,2 | A,2 A,2 A,4 | D3 D A,2 A,2 | F,2 D,2 B,4 | A,G, A,2 D2 A,2 | %61
 E4 A,4 | A,8 | D2 A,2 B,2 A,G, | F,2 E,2 D,4 | A,2 A,2 G,2 A,2 | G,2 D,2 E,4 | D,3 E, F,2 A,2 | %68
 A,2 A,2 A,4 | A,2 A,2 A,2 A,2 | A,2 A,2 A,4 | B,3 B, B,2 A,2 | C2 C2 C4 | C2 C2 C2 C2 | C2 C2 C4 | %75
 A,3 G, F,2 A,2 | A,2 _A,^F, A,4 | _A,2 A,2 =B,2 A,2 | A,2 A,2 A,4 | D3 D A,2 A,2 | F,2 D,2 B,4 | %81
 A,G, A,2[K:treble] D2 A,2 | E4 E4 | ^F8 | D2[K:bass] A,2 B,2 A,G, | F,2 E,2 D,4 | %86
 A,2 A,2 G,2 A,2 | G,2 D,2 E,4 | D,3 E, F,2 A,2 | A,2 A,2 A,4 | A,2 A,2 A,2 A,2 | A,2 A,2 A,4 | %92
 B,3 B, B,2 A,2 | C2 C2 C4 | C2 C2 C2 C2 | C2 C2 C4 | A,3 G, F,2 A,2 | A,2 _A,^F, A,4 | %98
 _A,2 A,2 =B,2 A,2 | A,2 A,2 A,4 | D3 D A,2 A,2 | F,2 D,2 B,4 |] %102
V:4
 z8 | z8 | D,2 C,2 B,,2 D,2 | G,,2 B,,2 A,,4 | z2 z D, D,2 D,2 | A,,2 A,,2 A,,4 | %6
 A,,2 A,,2 ^C,2 A,,2 | D,2 D,2 D,4 | B,,3 B,, B,,2 D,2 | C,2 C,2 C,4 | C,2 C,2 E,2 C,2 | %11
 F,2 F,2 F,4 | F,3 E, D,2 F,2 | E,2 E,2 E,4 | E,2 E,2 _A,2 E,2 | z8 | z8 | z8 | z2 F,E, F,2 D,2 | %19
 G,4 z4 | D,8 | z8 | z8 | D,2 C,2 B,,2 D,2 | G,,2 B,,2 A,,4 | z2 z D, D,2 D,2 | A,,2 A,,2 A,,4 | %27
 A,,2 A,,2 ^C,2 A,,2 | D,2 D,2 D,4 | B,,3 B,, B,,2 D,2 | C,2 C,2 C,4 | C,2 C,2 E,2 C,2 | %32
 F,2 F,2 F,4 | F,3 E, D,2 F,2 | E,2 E,2 E,4 | E,2 E,2 _A,2 E,2 | z8 | z8 | z8 | z2 ^F,E, F,2 D,2 | %40
 G,4 A,4 | D,8 | z8 | z8 | D,2 C,2 B,,2 D,2 | G,,2 B,,2 A,,4 | z2 z D, D,2 D,2 | A,,2 A,,2 A,,4 | %48
 A,,2 A,,2 ^C,2 A,,2 | D,2 D,2 D,4 | B,,3 B,, B,,2 D,2 | C,2 C,2 C,4 | C,2 C,2 E,2 C,2 | %53
 F,2 F,2 F,4 | F,3 E, D,2 F,2 | E,2 E,2 E,4 | E,2 E,2 _A,2 E,2 | z8 | z8 | z8 | z2 F,E, F,2 D,2 | %61
 G,4 z4 | D,8 | z8 | z8 | D,2 C,2 B,,2 D,2 | G,,2 B,,2 A,,4 | z2 z D, D,2 D,2 | A,,2 A,,2 A,,4 | %69
 A,,2 A,,2 ^C,2 A,,2 | D,2 D,2 D,4 | B,,3 B,, B,,2 D,2 | C,2 C,2 C,4 | C,2 C,2 E,2 C,2 | %74
 F,2 F,2 F,4 | F,3 E, D,2 F,2 | E,2 E,2 E,4 | E,2 E,2 _A,2 E,2 | z8 | z8 | z8 | z2 ^F,E, F,2 D,2 | %82
 G,4 A,4 | D,8 | z8 | z8 | D,2 C,2 B,,2 D,2 | G,,2 B,,2 A,,4 | z2 z D, D,2 D,2 | A,,2 A,,2 A,,4 | %90
 A,,2 A,,2 ^C,2 A,,2 | D,2 D,2 D,4 | B,,3 B,, B,,2 D,2 | C,2 C,2 C,4 | C,2 C,2 E,2 C,2 | %95
 F,2 F,2 F,4 | F,3 E, D,2 F,2 | E,2 E,2 E,4 | E,2 E,2 _A,2 E,2 | z8 | z8 | z8 |] %102

